packages/foundations/assets/icons/functional/images/social/face_delighted_12.svg

<svg width="12" height="12" viewBox="0 0 12 12" fill="none" xmlns="http://www.w3.org/2000/svg">
<g clip-path="url(#clip0_232_437)">
<path fill-rule="evenodd" clip-rule="evenodd" d="M8.99999 6C8.99999 7.6542 7.65419 9 5.99999 9C4.34579 9 2.99999 7.6542 2.99999 6C2.99999 4.3458 4.34579 3 5.99999 3C7.65419 3 8.99999 4.3458 8.99999 6ZM1.79999 6C1.79999 8.3196 3.68039 10.2 5.99999 10.2C8.31959 10.2 10.2 8.3196 10.2 6C10.2 3.6804 8.31959 1.8 5.99999 1.8C3.68039 1.8 1.79999 3.6804 1.79999 6ZM7.23419 6.5124C7.07399 6.399 6.85739 6.3954 6.69179 6.501C6.68159 6.5076 6.43319 6.6636 5.98919 6.6636C5.54519 6.6636 5.29679 6.507 5.29379 6.5052C5.12759 6.3906 4.90739 6.3906 4.74299 6.5076C4.57859 6.6234 4.50359 6.831 4.55639 7.0254C4.65839 7.4016 5.09159 8.1126 5.99759 8.1126C6.91079 8.1126 7.33019 7.395 7.42379 7.0152C7.47179 6.825 7.39379 6.6276 7.23419 6.5124ZM4.82339 5.649C4.84079 5.6334 4.93499 5.5542 5.06159 5.5848C5.38499 5.658 5.70719 5.4612 5.78339 5.1384C5.85959 4.8162 5.65979 4.4928 5.33759 4.4166C4.54619 4.2306 4.02419 4.7502 3.96659 4.8096C3.74339 5.0436 3.75419 5.4042 3.98099 5.6352C4.09619 5.7528 4.25039 5.811 4.40579 5.811C4.55579 5.811 4.70579 5.757 4.82339 5.649ZM8.03399 4.8096C7.97639 4.749 7.45499 4.2288 6.66299 4.4166C6.34019 4.4928 6.14099 4.8162 6.21719 5.1384C6.29339 5.4612 6.61679 5.658 6.93899 5.5848C7.06259 5.556 7.15439 5.6292 7.17599 5.6478C7.29299 5.7642 7.44599 5.823 7.60019 5.823C7.74899 5.823 7.89779 5.7678 8.01419 5.6574C8.25359 5.4288 8.26259 5.049 8.03399 4.8096Z" fill="#1A1C1F"/>
</g>
<defs>
<clipPath id="clip0_232_437">
<rect width="12" height="12" fill="white"/>
</clipPath>
</defs>
</svg>

<svg xmlns="http://www.w3.org/2000/svg" width="12" height="12" fill="none"><g clip-path="url(#a)"><path fill="#1A1C1F" fill-rule="evenodd" d="M9 6c0 1.654-1.346 3-3 3S3 7.654 3 6s1.346-3 3-3 3 1.346 3 3M1.8 6a4.2 4.2 0 1 0 8.4 0 4.2 4.2 0 0 0-8.4 0m5.434.512a.49.49 0 0 0-.542-.011c-.01.007-.259.163-.703.163s-.692-.157-.695-.159a.48.48 0 0 0-.738.52c.102.377.536 1.088 1.442 1.088.913 0 1.332-.718 1.426-1.098a.48.48 0 0 0-.19-.503m-2.41-.863a.27.27 0 0 1 .238-.064.6.6 0 0 0 .276-1.168c-.792-.186-1.314.333-1.371.393a.59.59 0 0 0 .014.825c.115.118.27.176.425.176.15 0 .3-.054.417-.162m3.21-.84c-.058-.06-.579-.58-1.371-.392a.6.6 0 1 0 .276 1.168.27.27 0 0 1 .237.063.6.6 0 0 0 .858-.838" clip-rule="evenodd"/></g><defs><clipPath id="a"><path fill="#fff" d="M0 0h12v12H0z"/></clipPath></defs></svg>
